X: 5
T: Level5
R: reel
M: 4/4
L: 1/8
K: D
|:"D" fe dA "G" B2 BA | "D" dA BA de fg | "D" fe dA "G" B2 BA | "A" dA Bc "D" d2 d2 :|
|:"D" de fg "G" f2 fe | "Bm" dA BA "A" dA BA | "D" de fg "G" f2 fe | "A" dA Bc "D" ed d2 :|

